images/help-grey.svg

<svg height="13" viewBox="0 0 13 13" width="13" xmlns="http://www.w3.org/2000/svg"><g fill="#8e8e8e" fill-rule="evenodd"><path d="m6.18369662 12.018488c-2.86854416 0-5.20215024-2.33370422-5.20215024-5.20215023 0-2.86854417 2.33360608-5.20215025 5.20215024-5.20215025 2.86844602 0 5.20215028 2.33360608 5.20215028 5.20215025 0 2.86844601-2.33370426 5.20215023-5.20215028 5.20215023m0-11.38583826c-3.41516255 0-6.18368802 2.76852547-6.18368802 6.18368803 0 3.41516253 2.76852547 6.18368803 6.18368802 6.18368803 3.41516256 0 6.18368808-2.7685255 6.18368808-6.18368803 0-3.41516256-2.76852552-6.18368803-6.18368808-6.18368803"/><path d="m6.12441174 8.70187185c.29151672 0 .53003041.22967984.53003041.53876608 0 .29151673-.23851369.53012856-.53003041.53012856s-.53886424-.23861183-.53886424-.53012856c0-.30908624.22967984-.53876608.53886424-.53876608m-.3975228-.93638705c-.03533536-.41519048.15017528-.7950456.34451976-1.0158916.09717224-.11483992.22967984-.24724937.3975228-.40625849.03533536-.03543351.06183688-.05300304.0883384-.07950456.23851369-.23861184.31801825-.30035056.43285817-.54769808.06183688-.11483992.0883384-.23851368.0883384-.3533536 0-.45935969-.31801824-.75087641-.87455017-.75087641-.55653192 0-.87455016.25618136-.94512273.75971025-.03543351.23851368-.20327647.37975696-.41519048.37975696-.24734752 0-.43285816-.17657864-.43285816-.43276001 0-.45052584.1766768-.81271328.52119656-1.10423.34442161-.28268288.76844593-.42392617 1.28964249-.42392617 1.08656233 0 1.79317138.60060297 1.79317138 1.54582386 0 .45052584-.24734752.91862121-.75087641 1.39574672-.04407104.03523721-.2560832.23841553-.29141856.27384904-.0441692.04407105-.20317832.20308017-.23851368.27375089-.07950456.14134144-.17667681.32685208-.21201217.55653192-.02650152.17657865-.19434448.3091844-.3975228.3091844-.21201216 0-.37102128-.16784296-.3975228-.37985512"/></g></svg>

<?xml version="1.0" encoding="UTF-8"?>
<svg width="13px" height="13px" viewBox="0 0 13 13" version="1.1" xmlns="http://www.w3.org/2000/svg" xmlns:xlink="http://www.w3.org/1999/xlink">
    <!-- Generator: Sketch 42 (36781) - http://www.bohemiancoding.com/sketch -->
    <title>Help</title>
    <desc>Created with Sketch.</desc>
    <defs></defs>
    <g id="Desktop" stroke="none" stroke-width="1" fill="none" fill-rule="evenodd">
        <g id="11B" transform="translate(-268.000000, -823.000000)" fill="#8E8E8E">
            <g id="Help" transform="translate(268.000000, 823.000000)">
                <path d="M6.18369662,12.018488 C3.31515246,12.018488 0.98154638,9.68478378 0.98154638,6.81633777 C0.98154638,3.9477936 3.31515246,1.61418752 6.18369662,1.61418752 C9.05214264,1.61418752 11.3858469,3.9477936 11.3858469,6.81633777 C11.3858469,9.68478378 9.05214264,12.018488 6.18369662,12.018488 M6.18369662,0.63264974 C2.76853407,0.63264974 8.59788634e-06,3.40117521 8.59788634e-06,6.81633777 C8.59788634e-06,10.2315003 2.76853407,13.0000258 6.18369662,13.0000258 C9.59885918,13.0000258 12.3673847,10.2315003 12.3673847,6.81633777 C12.3673847,3.40117521 9.59885918,0.63264974 6.18369662,0.63264974" id="Fill-1"></path>
                <path d="M6.12441174,8.70187185 C6.41592846,8.70187185 6.65444215,8.93155169 6.65444215,9.24063793 C6.65444215,9.53215466 6.41592846,9.77076649 6.12441174,9.77076649 C5.83289502,9.77076649 5.5855475,9.53215466 5.5855475,9.24063793 C5.5855475,8.93155169 5.81522734,8.70187185 6.12441174,8.70187185 M5.72688894,7.7654848 C5.69155358,7.35029432 5.87706422,6.9704392 6.0714087,6.7495932 C6.16858094,6.63475328 6.30108854,6.50234383 6.4689315,6.34333471 C6.50426686,6.3079012 6.53076838,6.29033167 6.5572699,6.26383015 C6.79578359,6.02521831 6.87528815,5.96347959 6.99012807,5.71613207 C7.05196495,5.60129215 7.07846647,5.47761839 7.07846647,5.36277847 C7.07846647,4.90341878 6.76044823,4.61190206 6.2039163,4.61190206 C5.64738438,4.61190206 5.32936614,4.86808342 5.25879357,5.37161231 C5.22336006,5.61012599 5.0555171,5.75136927 4.84360309,5.75136927 C4.59625557,5.75136927 4.41074493,5.57479063 4.41074493,5.31860926 C4.41074493,4.86808342 4.58742173,4.50589598 4.93194149,4.21437926 C5.2763631,3.93169638 5.70038742,3.79045309 6.22158398,3.79045309 C7.30814631,3.79045309 8.01475536,4.39105606 8.01475536,5.33627695 C8.01475536,5.78680279 7.76740784,6.25489816 7.26387895,6.73202367 C7.21980791,6.76726088 7.00779575,6.9704392 6.97246039,7.00587271 C6.92829119,7.04994376 6.76928207,7.20895288 6.73394671,7.2796236 C6.65444215,7.42096504 6.5572699,7.60647568 6.52193454,7.83615552 C6.49543302,8.01273417 6.32759006,8.14533992 6.12441174,8.14533992 C5.91239958,8.14533992 5.75339046,7.97749696 5.72688894,7.7654848" id="Fill-4"></path>
            </g>
        </g>
    </g>
</svg>
